lib/flags/m/854.svg

<svg xmlns="http://www.w3.org/2000/svg" fill="none" viewBox="0 0 20 15"><mask id="854_svg__a" width="20" height="15" x="0" y="0" mask-type="alpha" maskUnits="userSpaceOnUse"><path fill="#fff" d="M0 0H20V15H0z"/></mask><g mask="url(#854_svg__a)"><path fill="#5EAA22" fill-rule="evenodd" d="M0 0V15H20V0H0Z" clip-rule="evenodd"/><mask id="854_svg__b" width="20" height="15" x="0" y="0" mask-type="alpha" maskUnits="userSpaceOnUse"><path fill="#fff" fill-rule="evenodd" d="M0 0V15H20V0H0Z" clip-rule="evenodd"/></mask><g fill-rule="evenodd" clip-rule="evenodd" mask="url(#854_svg__b)"><path fill="#C51918" d="M0 0V7.5H20V0H0Z"/><path fill="#FECA00" d="M10.0222 9.85668L7.08284 12.0812L8.02331 8.45816L5.26648 6.25232H8.5523L10.0218 3.03613L11.4912 6.25232H14.777L11.991 8.46103L12.9607 12.0812L10.0222 9.85668Z"/></g></g></svg>

<svg xmlns="http://www.w3.org/2000/svg" fill="none" viewBox="0 0 20 15"><mask id="854_svg__a" width="20" height="15" x="0" y="0" maskUnits="userSpaceOnUse"><path fill="#fff" d="M0 0h20v15H0z"/></mask><g mask="url(#854_svg__a)"><path fill="#5EAA22" fill-rule="evenodd" d="M0 0v15h20V0H0z" clip-rule="evenodd"/><mask id="854_svg__b" width="20" height="15" x="0" y="0" maskUnits="userSpaceOnUse"><path fill="#fff" fill-rule="evenodd" d="M0 0v15h20V0H0z" clip-rule="evenodd"/></mask><g fill-rule="evenodd" clip-rule="evenodd" mask="url(#854_svg__b)"><path fill="#C51918" d="M0 0v7.5h20V0H0z"/><path fill="#FECA00" d="M10.022 9.857l-2.94 2.224.941-3.623-2.757-2.206h3.286l1.47-3.216 1.47 3.216h3.285l-2.786 2.209.97 3.62-2.939-2.224z"/></g></g></svg>
